X: 124
T: Weiceng xiunxige xiaonxu
L: 1/8
M: 2/4
K: Bb
d'2d' c' [I:setbarnb 1]| 
d'2d' c' | 
d' f' d' c' | 
d'2g2 | 
g3b | 
g2a2 | 
g a g f | 
d'2z2 | 
g df2 | 
f2d2 | 
f2f' c' | 
d' f' d' c' | 
f'2g2 | 
g3b | 
g2g a | 
g a g f | 
d2z2 | 
g b g f | 
d2z2 | 
f' f' c' b | 
g2z2 | 
g3b | 
g2g a | 
g a g f | 
d2z2 |]

@@@ Tune index: 8998
